src/assets/img/Home/icons/dollar.svg

<svg width="35" height="36" viewBox="0 0 35 36" fill="none" xmlns="http://www.w3.org/2000/svg">
<g id="Icon">
<path id="Oval" fill-rule="evenodd" clip-rule="evenodd" d="M17.4877 35.0276C27.0647 35.0276 34.8284 27.2639 34.8284 17.6869C34.8284 8.1099 27.0647 0.346191 17.4877 0.346191C7.91068 0.346191 0.146973 8.1099 0.146973 17.6869C0.146973 27.2639 7.91068 35.0276 17.4877 35.0276Z" fill="#262626"/>
<path id="Shape" fill-rule="evenodd" clip-rule="evenodd" d="M15.9683 9.68359C16.9206 9.68359 17.8695 9.68359 18.8218 9.68359C18.7658 10.3278 18.7063 10.9756 18.6538 11.6198C19.7637 11.7003 20.8456 12.0575 21.819 12.5862C21.3988 13.6436 20.9751 14.701 20.5515 15.7584C19.7322 15.0616 18.6538 14.6765 17.5789 14.6905C17.3093 14.6975 17.0292 14.75 16.8051 14.904C16.658 15.0056 16.5495 15.1631 16.518 15.3382C16.4935 15.4783 16.5005 15.6358 16.5775 15.7619C16.665 15.9019 16.8191 15.9859 16.9732 16.0385C17.2883 16.1505 17.6279 16.1575 17.957 16.1925C18.7308 16.2871 19.5081 16.4201 20.2399 16.6967C20.8071 16.9138 21.3498 17.2394 21.7384 17.7156C22.1061 18.1533 22.3196 18.7065 22.4002 19.2737C22.4947 19.9284 22.4667 20.6077 22.2636 21.2449C22.1061 21.7561 21.8365 22.2323 21.4863 22.6349C20.7616 23.4752 19.6972 23.9794 18.6048 24.109C18.6398 24.7987 18.6818 25.485 18.7203 26.1747C17.817 26.1747 16.9171 26.1747 16.0173 26.1747C16.0523 25.492 16.0978 24.8092 16.1293 24.1265C15.4046 24.102 14.6868 23.9409 14.011 23.6853C13.3563 23.4367 12.7331 23.1076 12.1519 22.7225C12.579 21.623 13.0062 20.5236 13.4368 19.4207C13.9235 19.8304 14.4417 20.212 15.0089 20.5026C15.6181 20.8142 16.2939 21.0138 16.9802 21.0208C17.3058 21.0243 17.6419 21.0068 17.95 20.8948C18.1391 20.8247 18.3247 20.7022 18.4087 20.5096C18.4962 20.3066 18.4892 20.051 18.3562 19.8689C18.2616 19.7463 18.1286 19.6623 17.9885 19.6028C17.7995 19.5258 17.6034 19.4837 17.4038 19.4522C16.6685 19.3332 15.9298 19.2352 15.219 19.0041C14.6483 18.8185 14.0916 18.5594 13.6364 18.1603C13.3493 17.9117 13.1112 17.607 12.9432 17.2639C12.6911 16.7527 12.5965 16.175 12.6035 15.6078C12.6035 14.9741 12.7331 14.3298 13.0482 13.7731C13.3213 13.2759 13.7379 12.8698 14.2071 12.5582C14.7743 12.1835 15.4081 11.9279 16.0523 11.7214C16.0243 11.0421 15.9963 10.3628 15.9683 9.68359Z" fill="#CAFF33"/>
</g>
</svg>

<svg xmlns="http://www.w3.org/2000/svg" width="35" height="36" fill="none"><g fill-rule="evenodd" clip-rule="evenodd"><path fill="#262626" d="M17.488 35.028c9.577 0 17.34-7.764 17.34-17.341 0-9.577-7.763-17.34-17.34-17.34S.147 8.11.147 17.686s7.764 17.34 17.34 17.34Z"/><path fill="#CAFF33" d="M15.968 9.684h2.854c-.056.644-.116 1.292-.168 1.936 1.11.08 2.192.438 3.165.966-.42 1.058-.844 2.115-1.267 3.172a4.544 4.544 0 0 0-2.973-1.067c-.27.006-.55.059-.774.213a.685.685 0 0 0-.287.434.615.615 0 0 0 .06.424c.087.14.241.224.395.276.315.113.655.12.984.154.774.095 1.551.228 2.283.505.567.217 1.11.542 1.498 1.019.368.437.582.99.662 1.558.095.654.067 1.334-.136 1.97a3.864 3.864 0 0 1-.778 1.39c-.724.841-1.789 1.345-2.881 1.475.035.69.077 1.376.115 2.066h-2.703c.035-.683.08-1.366.112-2.049a6.651 6.651 0 0 1-2.118-.44 9.455 9.455 0 0 1-1.86-.963c.428-1.1.855-2.2 1.286-3.302.487.41 1.005.791 1.572 1.082.61.311 1.285.51 1.971.518.326.003.662-.014.97-.126.19-.07.375-.193.459-.385.087-.203.08-.459-.053-.641a.897.897 0 0 0-.368-.266 2.61 2.61 0 0 0-.584-.15c-.735-.12-1.474-.218-2.185-.449-.57-.186-1.127-.445-1.583-.844a2.844 2.844 0 0 1-.693-.896c-.252-.511-.346-1.089-.34-1.656 0-.634.13-1.278.445-1.835.273-.497.69-.903 1.16-1.215.566-.374 1.2-.63 1.844-.837l-.084-2.037Z"/></g></svg>
